!!!OTL: 132. Eginhard und Emma.
!!!ODT: 1840 (vor)
!!!ARE: Europa, Mitteleuropa, Deutschland
!!!SCT: B0132
!!!TXL: @@DE
!!!YEM: Copyright 1995, estate of Helmut Schaffrath.
**kern	**text
*ICvox	*
*Ivox	*
*M4/4	*
*met(c)	*
*clefG2	*
*k[b-e-a-]	*
*E-:	*
!LO:TX:a:t=Mäßig bewegt. 	!
{8b-	Als
8g	Kaiſer
8a-	.
=1	=1
4b-	Karl
4b-	im
4.ee-	wei-
8g	-ten
=2	=2
8b-L	Ʒu-
8a-J	.
4a-	-ge
8r}	.
{8a-	in
8g	niedter
8f	.
=3	=3
4g	Her-
4b-	-berg
(4ee-	keh-
8dd)	.
8cc	-ret
=4	=4
2b-	ein,
4r}	.
{4b-	trat
=5	=5
4.a-	ſchwa-
8ff	-nen-
8ee-	-weiß
8dd	mit
8cc	Schürʒ
8b-	und
=6	=6
8.b-L	Tu-
16ee-J	.
4ee-	-che
8r}	.
{8ee-	ʒu
8dd	ihm
8ee-	die
=7	=7
4cc	Wir-
4ff	-thin,
4ee-	jung
4dd	und
=8	=8
4ee-	fein.
4r	.
8r}	.
==	==
!!!AGN: Ballade, Romanze
!!!GTL: Balladen und Romanzen
!!!ONB: ESAC (Essen Associative Code) Database: BOEHME
!!!AMT: simple quadruple
!!!AIN: vox
!!!EED: Helmut Schaffrath
!!!EEV: 1.0
!!@@COMMENT:"Sagenlied. Kunſtdichtung aus dem Anf. des 19. Jahrh. Verf. unbekannt. Gedruckt mit dieſer
!!ſchönen Mel. bei Fink, Hausſchatʒ 1840 Nr. 336. Es iſt darin die Sage über Entſtehung des
!!Ortes "Seligenſtadt" in Heſſen behandelt."
!!@@END:
!!!URL-scan: https://archive.org/details/BoehmeVtLieder1895/page/n135/mode/2up
!!!ENC: Anna Maria Matuszewska
!!!EEV: 2024/18/06
*-	*-
